X: 12945
T: Fiddler's Fancy, The
R: reel
M: 4/4
K: Gmixolydian
D|:DG~G2 DGBG|AF~F2 AFGF|DG~G2 GABd|fdcf dgg^f|
gagf dcde|~f3g fdcA|dG~G2 FGAc|1 fdcA dGGD:|2 fdcA dGB/c/d||
g2dg _bgde|f2cf acfa|gfde fdcA|FGAc dGGB|
dg~g2 dg_bg|cf~f2 cfaf|gfde f2ag|fdcA dGG2|

